X:119
T:The Battle Hymn of the Republic
Z:Jack Campin  *  May 2000  *  http://www.campin.me.uk/
M:6/8
L:1/8
Q:80
K:D
"A" [FA] | [F2A2] [FA] [F2A2] [EG] | [D2F2] [FA] [F2d2] [Ge] | [A2f2] [A
f] [A2f2] [Ge] | [F3d3] [F2d2] [Ac] | [G2B2] [GB] [G2B2] [Ac] | [B2d2] [
Ac] [B2d2] [GB] | [F2A2] [GB] [F2A2] [DF] | [F3A3] [F2A2] [FA] | [F2A2]
[FA] [F2A2] [EG] | [D2F2] [FA] [F2d2] [Ge] | [A2f2] [Af] [A2f2] [Ge] | [
F2d2] z [F3d3] | [G3e3] [G3e3] | [F3d3] [E3c3] | [F6d6] | [F2d2] z z2 ||
"B" [F3A3] [F2A2] [EG] | [D2F2] [FA] [F2d2] [Ge] | [A6f6] | [F3d3] [F2d2
] z | [G3B3] [G2B2] [Ac] | [B2d2] [Ac] [B2d2] [GB] | [F6A6] | [D3F3] [D2
F2] z | [F3A3] [F2A2] [EG] | [D2F2] [FA] [F2d2] [Ge] | [A6f6] | [F2d2] z
 [F3d3] | [G3e3] [G3e3] | [F3d3] [E3c3] | [F6d6] | [F2d2] z z2 ||]

